X:1
T:Humours Of Tullycrine, The
M:4/4
L:1/8
R:hornpipe
K:Ador
zG|EAAB cBcd|eaag e2dB|c2Ac BAGA|Bdde dBAG|
EAAB cBcd|eaag e2dB|c2Ac BAGA|BAAG A2:|
eaab aged|eaab aged|egga ged2|dgga gedB|
Bd|A3B B3d|eaag e2dB|c2Ac BAGA|BAAG A2:|
</abc>
